packages/IcoMoon/src/Spinner4Icon/index.svg

<svg version="1.1" xmlns="http://www.w3.org/2000/svg" width="16" height="16" viewBox="0 0 16 16">
<path d="M3 8c0-0.19 0.011-0.378 0.032-0.563l-2.89-0.939c-0.092 0.487-0.141 0.989-0.141 1.502 0 2.3 0.971 4.374 2.526 5.833l1.786-2.458c-0.814-0.889-1.312-2.074-1.312-3.375zM13 8c0 1.301-0.497 2.486-1.312 3.375l1.786 2.458c1.555-1.459 2.526-3.533 2.526-5.833 0-0.513-0.049-1.015-0.141-1.502l-2.89 0.939c0.021 0.185 0.032 0.373 0.032 0.563zM9 3.1c1.436 0.292 2.649 1.199 3.351 2.435l2.89-0.939c-1.144-2.428-3.473-4.188-6.241-4.534v3.038zM3.649 5.535c0.702-1.236 1.914-2.143 3.351-2.435v-3.038c-2.769 0.345-5.097 2.105-6.241 4.534l2.89 0.939zM10.071 12.552c-0.631 0.288-1.332 0.448-2.071 0.448s-1.44-0.16-2.071-0.448l-1.786 2.458c1.144 0.631 2.458 0.99 3.857 0.99s2.713-0.359 3.857-0.99l-1.786-2.458z"></path>
</svg>

<svg xmlns="http://www.w3.org/2000/svg" viewBox="0 0 16 16">
  <path d="M3 8c0-.19.011-.378.032-.563l-2.89-.939A8.085 8.085 0 00.001 8c0 2.3.971 4.374 2.526 5.833l1.786-2.458A4.982 4.982 0 013.001 8zm10 0a4.978 4.978 0 01-1.312 3.375l1.786 2.458A7.975 7.975 0 0016 8c0-.513-.049-1.015-.141-1.502l-2.89.939c.021.185.032.373.032.563zM9 3.1a5.01 5.01 0 013.351 2.435l2.89-.939A8.01 8.01 0 009 .062V3.1zM3.649 5.535A5.007 5.007 0 017 3.1V.062A8.005 8.005 0 00.759 4.596l2.89.939zm6.422 7.017C9.44 12.84 8.739 13 8 13s-1.44-.16-2.071-.448L4.143 15.01C5.287 15.641 6.601 16 8 16s2.713-.359 3.857-.99l-1.786-2.458z"/>
</svg>
